app2/images/arrow-red.svg

<svg width="15" height="10" viewBox="0 0 15 10" fill="none" xmlns="http://www.w3.org/2000/svg">
<path d="M7.65858 8.88926L13.8886 2.65908C14.0329 2.51498 14.1123 2.32263 14.1123 2.11752C14.1123 1.91242 14.0329 1.72006 13.8886 1.57597L13.43 1.11716C13.1311 0.818606 12.6453 0.818606 12.3468 1.11716L7.11521 6.34879L1.87777 1.11135C1.73356 0.967255 1.54132 0.887695 1.33633 0.887695C1.13111 0.887695 0.938867 0.967255 0.794543 1.11135L0.335961 1.57016C0.191751 1.71437 0.112305 1.90661 0.112305 2.11172C0.112305 2.31682 0.191751 2.50918 0.335961 2.65327L6.57172 8.88926C6.71638 9.03369 6.90953 9.11303 7.11487 9.11257C7.32099 9.11303 7.51403 9.03369 7.65858 8.88926Z" fill="#E31D24"/>
</svg>

<svg width="15" height="10" viewBox="0 0 15 10" fill="none" xmlns="http://www.w3.org/2000/svg"><path d="M7.659 8.89l6.23-6.23a.76.76 0 00.223-.542.76.76 0 00-.223-.542l-.459-.459a.767.767 0 00-1.083 0L7.115 6.35 1.878 1.11a.76.76 0 00-.542-.223.761.761 0 00-.541.223l-.459.46a.76.76 0 00-.224.54c0 .206.08.398.224.542L6.572 8.89a.761.761 0 00.543.224c.206 0 .399-.08.544-.224z" fill="#E31D24"/></svg>
